X:1
T:Title
%%score { 1 | 2 }
L:1/8
M:4/4
K:F
V:1 treble nm="Grand Piano"
V:2 bass 
V:1
 z4 z2[Q:1/4=106] F>G | A2 c2 d2 c2 | c4 A2 A>A | B2 B2 A2 A2 |[M:3/4] [EG]6 |[M:1/4] F>G | %6
[M:4/4] A2 c2 d2 c2 | c4 A2 F>G | A2 [DFB]2 [CFA]2 [B,EG]2 | [A,F]6 z2 | %10
 [DFB]2 [DFB]>[DFB] [DFB][DFB][DFB][DFB] | [CFA]6 z2 | [B,EG]4 [A,F]2 [CEG]2 | [CFA]4 [A,F]2 z2 | %14
 [DFB]2 [DFB]>[DFB] [DFB][DFB][DFA][DFB] | [CFA]6 z2 | [B,EG]4 [CFA]2 [B,CG]2 | %17
[M:7/8] [B,CG]- [B,CG]3 [F,A,CF]3 |] %18
V:2
 z4 z2 [F,A,]>[F,B,F] | [F,CF]2 [F,A,F]2 [F,B,F]2 [F,A,F]2 | [F,A,F]4 [F,CF]2 [F,CF]>[F,CF] | %3
 [G,CE]2 [G,CE]2 [F,CF]2 [F,CF]2 |[M:3/4] [C,C]6 |[M:1/4] [F,A,]>[F,B,F] | %6
[M:4/4] [F,CF]2 [F,A,F]2 [F,B,F]2 [F,A,F]2 | [F,A,F]4 [F,CF]2 [F,A,]>[F,B,F] | %8
 [F,CF]2 B,,2 C,2 C,2 | F,6 z2 | B,,2 B,,>B,, B,,C,D,E, | F,6 z2 | C,4 C,2 C,2 | F,4 F,2 z2 | %14
 B,,2 B,,>B,, B,,C,D,E, | F,6 z2 | C,4 C,2 C,2 |[M:7/8] C,- C,3 F,,3 |] %18

